X:1
T:Molloy's Favourite Reel
M:4/4
L:1/8
Q:200
S:Larry Reynolds
Z:Philippe Varlet  irtrad-l 2000-12-06
R:Reel
K:D
|: d2Ad fdAF | GFEF GABc | d2Ad fdAF | GBAG FD D2 :|
| fg{a}gf g2ag | fg{a}gf gfeg | fg{a}gf gbag | faeg fddA |
| dfaf g2ag | fg{a}gf gfeg | fedc dcBA | ^GABc defe ||
